@extra/icons/0nyX/symbolic-32/cs-region.svg

<?xml version="1.0" encoding="UTF-8" standalone="no"?>
<svg
   xmlns:dc="http://purl.org/dc/elements/1.1/"
   xmlns:cc="http://creativecommons.org/ns#"
   xmlns:rdf="http://www.w3.org/1999/02/22-rdf-syntax-ns#"
   xmlns:svg="http://www.w3.org/2000/svg"
   xmlns="http://www.w3.org/2000/svg"
   viewBox="0 0 16 16" width="32" height="32"
   version="1.1"
   id="svg8">
  <metadata
     id="metadata10">
    <rdf:RDF>
      <cc:Work
         rdf:about="">
        <dc:format>image/svg+xml</dc:format>
        <dc:type
           rdf:resource="http://purl.org/dc/dcmitype/StillImage" />
        <dc:title></dc:title>
      </cc:Work>
    </rdf:RDF>
  </metadata>
  <defs
     id="defs8" />
  <g
     fill="#f1f2f2"
     id="g6">
    <path
       id="path826"
       d="M 8 1 A 7 7 0 0 0 1 8 A 7 7 0 0 0 8 15 A 7 7 0 0 0 15 8 A 7 7 0 0 0 8 1 z M 8.09375 1.9980469 L 8.09375 2 A 5.8912567 5.9850139 0 0 1 14 8 A 5.8912567 5.9850139 0 0 1 8.09375 14 A 5.8912567 5.9850139 0 0 1 2.1875 8 A 5.8912567 5.9850139 0 0 1 8.09375 1.9980469 z "
       style="opacity:1;fill:#ffffff;fill-opacity:0.99390247;stroke:none" />
    <path
       style="fill:#ffffff;opacity:1"
       d="m8.15 2.96l0.486 0.2-0.22 0.575c-0.282 0.13-0.545 0.24-0.841 0.331l-0.2 0.31-0.154 0.088-0.221-0.464 0.177-0.177v-0.177l-0.442-0.287 0.132-0.133 0.708-0.199 0.575-0.066zm-3.119 0.946l-0.093 0.219s-0.147 0.052-0.188 0.063c-0.264 0.24-0.694 0.622-1.062 1.187a4.734 4.734 0 0 0 -0.25 0.438c-0.037 0.075-0.093 0.141-0.125 0.218-0.047 0.101-0.084 0.204-0.125 0.313-0.018 0.05-0.016 0.105-0.032 0.156a4.953 4.953 0 0 0 -0.218 1.25c0.056 0.09 0.125 0.219 0.125 0.219l0.375 0.25 0.437 0.125 0.125 0.186 0.281 0.188 0.157-0.032 0.125 0.063v0.031l-0.157 0.438-0.125 0.187 0.032 0.063-0.063 0.312 0.313 0.656 0.343 0.313 0.157 0.188-0.032 0.468 0.094 0.281-0.094 0.438c0.221 0.16 0.473 0.283 0.719 0.406l-0.031-0.125 0.156-0.156 0.062-0.156 0.25-0.063 0.22-0.5-0.094-0.125 0.125-0.187 0.28-0.063 0.188-0.344-0.062-0.437 0.25-0.313 0.031-0.312c-0.313-0.158-0.596-0.337-0.906-0.5l-0.188-0.313-0.25-0.062-0.187-0.406-0.375 0.031-0.313-0.25-0.343 0.313v0.03c-0.104-0.03-0.252-0.004-0.344-0.062l-0.063-0.25v-0.218l-0.218 0.03 0.062-0.466-0.125 0.031-0.156 0.157-0.125 0.031-0.188-0.094v-0.218l0.032-0.282 0.28-0.187 0.22-0.032 0.062-0.126 0.281 0.063 0.188 0.281 0.031-0.437 0.375-0.282 0.156-0.343 0.282-0.094 0.125-0.25 0.343-0.062 0.188-0.25h-0.5l0.281-0.125h0.25l0.313-0.125 0.062-0.125-0.125-0.125-0.125-0.032 0.031-0.125-0.093-0.187-0.219 0.062 0.031-0.187-0.28-0.125-0.188 0.343v0.157l-0.22 0.093-0.124 0.282-0.031-0.282-0.407-0.156-0.031-0.187 0.469-0.25 0.218-0.22 0.032-0.25-0.125-0.062h-0.156zm4.719-0.656l-0.281 0.063-0.281 0.187v0.125l-0.375 0.281 0.062 0.344 0.25-0.156 0.156 0.156 0.157 0.094 0.093-0.282-0.062-0.156 0.062-0.094 0.25-0.218h0.094l-0.094 0.219v0.218c0.096-0.026 0.184-0.05 0.281-0.062l-0.28 0.187v0.125l-0.313 0.25-0.313-0.062v-0.189l-0.156 0.095 0.062 0.156h-0.218l-0.157 0.219-0.156 0.187-0.281 0.063 0.188 0.156 0.03 0.156h-0.218l-0.25 0.158v0.406h0.125l0.125 0.124 0.25-0.125 0.094-0.25 0.187-0.125 0.063-0.094 0.312-0.062 0.157 0.187 0.156 0.094-0.094 0.219 0.188-0.063 0.062-0.219-0.187-0.218h0.062l0.219 0.156 0.062 0.25 0.157 0.219 0.062-0.313 0.094-0.062c0.102 0.106 0.195 0.255 0.281 0.375h0.313l0.218 0.75c-0.096 0.088-0.183 0.164-0.281 0.25h-0.25l-0.375-0.094h-0.156l-0.156 0.188-0.375-0.407-0.25-0.062-0.407 0.062-0.5 0.188c-0.198 0.224-0.25 0.33-0.437 0.562l0.031 0.344 0.094 0.094-0.188 0.28 0.188 0.5c0.176 0.2 0.355 0.395 0.531 0.595l0.281-0.219 0.125 0.125 0.25-0.188 0.094 0.126h0.281l0.188 0.156-0.125 0.344 0.218 0.218-0.03 0.375 0.155 0.281-0.093 0.25c-0.01 0.173-0.032 0.359-0.032 0.532 0.086 0.234 0.139 0.451 0.22 0.687l0.093 0.406v0.157h0.125l0.25-0.125h0.25c0.004-0.003-0.004-0.029 0-0.032l0.437-0.437-0.062-0.156 0.25-0.25-0.188-0.188 0.25-0.219 0.22-0.125 0.093-0.125-0.063-0.25v-0.656l0.22-0.406 0.187-0.281 0.28-0.594v-0.156c-0.117 0.014-0.26 0.022-0.374 0.031l0.25-0.25 0.344-0.25 0.187-0.219v-0.218c-0.041-0.079-0.083-0.14-0.125-0.22l-0.156 0.188-0.125-0.156-0.188-0.125v-0.313l0.22 0.22h0.218c0.109 0.098 0.217 0.2 0.312 0.312l0.188-0.219c-0.356-1.326-0.827-2.136-1.406-2.844l-0.032-0.031a5.109 5.109 0 0 0 -0.906 -0.688l-0.156 0.157-0.281-0.282h0.218a5.053 5.053 0 0 0 -0.687 -0.312z"
       id="path4" />
  </g>
</svg>

<?xml version="1.0" encoding="UTF-8" standalone="no"?>
<svg xmlns="http://www.w3.org/2000/svg" version="1.1" viewBox="0 0 16 16" width="32" height="32">
 <g fill="#f1f2f2">
  <path d="m8 1a7 7 0 0 0 -7 7 7 7 0 0 0 7 7 7 7 0 0 0 7 -7 7 7 0 0 0 -7 -7zm0.0938 0.998v0.002a5.8913 5.985 0 0 1 5.9062 6 5.8913 5.985 0 0 1 -5.9062 6 5.8913 5.985 0 0 1 -5.9063 -6 5.8913 5.985 0 0 1 5.9063 -6.002z"/>
  <path d="m8.15 2.96l0.486 0.2-0.22 0.575c-0.282 0.13-0.545 0.24-0.841 0.331l-0.2 0.31-0.154 0.088-0.221-0.464 0.177-0.177v-0.177l-0.442-0.287 0.132-0.133 0.708-0.199 0.575-0.066zm-3.119 0.946l-0.093 0.219s-0.147 0.052-0.188 0.063c-0.264 0.24-0.694 0.622-1.062 1.187a4.734 4.734 0 0 0 -0.25 0.438c-0.037 0.075-0.093 0.141-0.125 0.218-0.047 0.101-0.084 0.204-0.125 0.313-0.018 0.05-0.016 0.105-0.032 0.156a4.953 4.953 0 0 0 -0.218 1.25c0.056 0.09 0.125 0.219 0.125 0.219l0.375 0.25 0.437 0.125 0.125 0.186 0.281 0.188 0.157-0.032 0.125 0.063v0.031l-0.157 0.438-0.125 0.187 0.032 0.063-0.063 0.312 0.313 0.656 0.343 0.313 0.157 0.188-0.032 0.468 0.094 0.281-0.094 0.438c0.221 0.16 0.473 0.283 0.719 0.406l-0.031-0.125 0.156-0.156 0.062-0.156 0.25-0.063 0.22-0.5-0.094-0.125 0.125-0.187 0.28-0.063 0.188-0.344-0.062-0.437 0.25-0.313 0.031-0.312c-0.313-0.158-0.596-0.337-0.906-0.5l-0.188-0.313-0.25-0.062-0.187-0.406-0.375 0.031-0.313-0.25-0.343 0.313v0.03c-0.104-0.03-0.252-0.004-0.344-0.062l-0.063-0.25v-0.218l-0.218 0.03 0.062-0.466-0.125 0.031-0.156 0.157-0.125 0.031-0.188-0.094v-0.218l0.032-0.282 0.28-0.187 0.22-0.032 0.062-0.126 0.281 0.063 0.188 0.281 0.031-0.437 0.375-0.282 0.156-0.343 0.282-0.094 0.125-0.25 0.343-0.062 0.188-0.25h-0.5l0.281-0.125h0.25l0.313-0.125 0.062-0.125-0.125-0.125-0.125-0.032 0.031-0.125-0.093-0.187-0.219 0.062 0.031-0.187-0.28-0.125-0.188 0.343v0.157l-0.22 0.093-0.124 0.282-0.031-0.282-0.407-0.156-0.031-0.187 0.469-0.25 0.218-0.22 0.032-0.25-0.125-0.062h-0.156zm4.719-0.656l-0.281 0.063-0.281 0.187v0.125l-0.375 0.281 0.062 0.344 0.25-0.156 0.156 0.156 0.157 0.094 0.093-0.282-0.062-0.156 0.062-0.094 0.25-0.218h0.094l-0.094 0.219v0.218c0.096-0.026 0.184-0.05 0.281-0.062l-0.28 0.187v0.125l-0.313 0.25-0.313-0.062v-0.189l-0.156 0.095 0.062 0.156h-0.218l-0.157 0.219-0.156 0.187-0.281 0.063 0.188 0.156 0.03 0.156h-0.218l-0.25 0.158v0.406h0.125l0.125 0.124 0.25-0.125 0.094-0.25 0.187-0.125 0.063-0.094 0.312-0.062 0.157 0.187 0.156 0.094-0.094 0.219 0.188-0.063 0.062-0.219-0.187-0.218h0.062l0.219 0.156 0.062 0.25 0.157 0.219 0.062-0.313 0.094-0.062c0.102 0.106 0.195 0.255 0.281 0.375h0.313l0.218 0.75c-0.096 0.088-0.183 0.164-0.281 0.25h-0.25l-0.375-0.094h-0.156l-0.156 0.188-0.375-0.407-0.25-0.062-0.407 0.062-0.5 0.188c-0.198 0.224-0.25 0.33-0.437 0.562l0.031 0.344 0.094 0.094-0.188 0.28 0.188 0.5c0.176 0.2 0.355 0.395 0.531 0.595l0.281-0.219 0.125 0.125 0.25-0.188 0.094 0.126h0.281l0.188 0.156-0.125 0.344 0.218 0.218-0.03 0.375 0.155 0.281-0.093 0.25c-0.01 0.173-0.032 0.359-0.032 0.532 0.086 0.234 0.139 0.451 0.22 0.687l0.093 0.406v0.157h0.125l0.25-0.125h0.25c0.004-0.003-0.004-0.029 0-0.032l0.437-0.437-0.062-0.156 0.25-0.25-0.188-0.188 0.25-0.219 0.22-0.125 0.093-0.125-0.063-0.25v-0.656l0.22-0.406 0.187-0.281 0.28-0.594v-0.156c-0.117 0.014-0.26 0.022-0.374 0.031l0.25-0.25 0.344-0.25 0.187-0.219v-0.218c-0.041-0.079-0.083-0.14-0.125-0.22l-0.156 0.188-0.125-0.156-0.188-0.125v-0.313l0.22 0.22h0.218c0.109 0.098 0.217 0.2 0.312 0.312l0.188-0.219c-0.356-1.326-0.827-2.136-1.406-2.844l-0.032-0.031a5.109 5.109 0 0 0 -0.906 -0.688l-0.156 0.157-0.281-0.282h0.218a5.053 5.053 0 0 0 -0.687 -0.312z"/>
 </g>
</svg>
